X:1
T:The Loving Girl
M:4/4
L:1/4
K:G
 D| G G G D| G E D D| D A A D| G A B| D| G B d B| A G E A| G E D G|\
 B A G||
